assets/images/facebook.svg

<svg width="18" height="18" viewBox="0 0 18 18" fill="none" xmlns="http://www.w3.org/2000/svg">
<path d="M18 9.055C18 4.05409 13.9705 0 9 0C4.02947 0 0 4.05402 0 9.055C0 13.5746 3.29119 17.3207 7.59375 18V11.6725H5.30859V9.055H7.59375V7.06007C7.59375 4.79066 8.93742 3.53711 10.9931 3.53711C11.9779 3.53711 13.0078 3.71397 13.0078 3.71397V5.94235H11.873C10.7549 5.94235 10.4062 6.64036 10.4062 7.35648V9.055H12.9023L12.5033 11.6725H10.4062V18C14.7088 17.3207 18 13.5747 18 9.055Z" fill="#1877F2"/>
</svg>

<svg width="18" height="18" fill="none" xmlns="http://www.w3.org/2000/svg"><path d="M18 9.055C18 4.055 13.97 0 9 0S0 4.054 0 9.055c0 4.52 3.291 8.266 7.594 8.945v-6.328H5.309V9.055h2.285V7.06c0-2.27 1.343-3.523 3.4-3.523.984 0 2.014.177 2.014.177v2.228h-1.135c-1.118 0-1.467.698-1.467 1.414v1.699h2.496l-.399 2.617h-2.097V18C14.71 17.32 18 13.575 18 9.055Z" fill="#1877F2"/></svg>
